X:3645
T:Leslie's Reel
O:england
R:reel
M:C|
K:A
ec~c2 ecfc|ec~c2 Bcdf|ec~c2 ecea|1 fdBc defa:|2 fdBc defg||
|:a2ea gbeg|a2ga fB~B2|1 a2ea gbec|dcBc defg:|2 agfe fedc|Bcde fgaf||


